src/topics/icons/apigee.svg

<svg height="174" preserveAspectRatio="xMidYMid" viewBox="0 0 512 174" width="512" xmlns="http://www.w3.org/2000/svg"><path d="m91.3472 118.6208c0 6.5504 0 16.7936-12.26624 16.7936-7.50336 0-10.48064-4.04992-12.26688-10.8384-6.5504 7.86048-14.6496 11.9104-24.41472 11.9104-24.05888 0-42.39936-20.4864-42.39936-49.4272 0-28.10688 18.93632-49.664 42.39872-49.664 9.408 0 18.69824 3.6928 24.41472 11.79136.71488-6.19328 6.0736-10.71872 12.26688-10.71872 12.26688 0 12.26688 10.12352 12.26688 16.7936v63.35808zm-45.376-5.71648c13.33952 0 19.77088-13.57696 19.77088-25.8432s-6.19328-26.2016-19.7696-26.2016c-14.0544 0-20.36608 13.93408-20.36608 26.2016s6.43072 25.8432 20.3648 25.8432zm52.64128-60.144c0-8.57472 5.35936-14.2912 12.86272-14.2912 7.1456 0 11.19488 3.9296 12.86272 10.71808 4.76416-7.86048 14.768-11.79072 24.41472-11.79072 27.63072 0 41.32672 25.8432 41.32672 50.73536 0 24.17664-16.4352 48.23424-42.28032 48.23424-7.97952 0-16.7936-2.97728-23.4624-8.93248v31.32288c0 8.57472-5.35936 14.2912-12.86272 14.2912s-12.864-5.7152-12.864-14.2912v-105.9968zm45.8528 60.144c13.33888 0 20.00832-13.93408 20.00832-25.8432 0-12.14848-6.5504-26.2016-20.00832-26.2016-13.696 0-20.128 12.86208-20.128 25.248 0 12.624 5.9552 26.7968 20.128 26.7968zm78.84224-98.84992c0 7.97888-6.432 14.76736-14.41088 14.76736-7.6224 0-14.41024-6.90752-14.41024-14.768-.00064-7.26592 6.78848-14.05376 14.4096-14.05376 7.6224 0 14.41152 6.5504 14.41152 14.0544zm-27.27296 38.70592c0-8.57472 5.35936-14.2912 12.86272-14.2912s12.86272 5.7152 12.86272 14.2912v68.36224c0 8.57472-5.35936 14.2912-12.86272 14.2912s-12.86272-5.7152-12.86272-14.2912z" fill="#fc4c02"/><path d="m319.1808 126.83904c0 30.84608-20.12672 46.3296-49.3056 46.3296-10.48064 0-40.4928-5.12192-40.4928-19.29472 0-4.76416 5.35872-11.19488 10.3616-11.19488 8.2176 0 17.26848 7.97952 32.03648 7.97952 12.5056 0 21.67552-7.264 21.67552-20.2464v-6.07488h-.35712c-5.35936 7.86048-14.0544 12.1472-25.8432 12.1472-26.91648 0-39.54112-23.6992-39.54112-49.18656 0-25.8432 16.4352-49.90208 42.27968-49.90208 8.6944 0 18.69824 3.9296 23.4624 11.79072 1.5488-6.78848 5.71648-10.71872 12.86272-10.71872 7.50336 0 12.86272 5.71648 12.86272 14.2912v74.08zm-45.73248-65.86112c-13.33888 0-20.00832 13.93472-20.00832 25.8432 0 13.696 6.54976 26.2016 20.00768 26.2016 13.696 0 20.128-12.86208 20.128-25.248 0-12.624-6.0736-26.7968-20.128-26.7968zm76.5792 34.53824c1.7856 12.62464 12.26688 18.5792 24.17664 18.5792 13.21984 0 22.272-10.3616 29.05984-10.3616 5.4784 0 10.48064 5.4784 10.48064 11.07584 0 11.07584-22.74752 21.79456-41.92256 21.79456-28.82176 0-48.1152-21.08032-48.1152-49.3056 0-25.9648 18.93632-49.664 45.9712-49.664 27.7504 0 46.09152 25.248 46.09152 46.68608 0 7.6224-3.3344 11.43424-11.19488 11.43424h-54.5472v-.23808zm40.25472-17.15008c-1.42912-11.19488-8.57472-19.6512-20.48512-19.6512-11.4336 0-19.05536 8.6944-20.3648 19.6512zm55.97568 17.5072c1.7856 12.62464 12.26688 18.46016 24.17664 18.46016 13.21984 0 22.272-10.3616 29.05984-10.3616 5.4784 0 10.48064 5.4784 10.48064 11.07584 0 11.07584-22.74752 21.79456-41.92256 21.79456-28.82176 0-48.1152-21.08032-48.1152-49.3056 0-25.9648 18.93632-49.664 45.9712-49.664 27.7504 0 46.09152 25.248 46.09152 46.68608 0 7.6224-3.3344 11.4336-11.19488 11.4336h-54.5472zm40.256-17.15008c-1.42976-11.19488-8.576-19.6512-20.4864-19.6512-11.43296 0-19.05472 8.6944-20.24576 19.6512h40.73152z" fill="#54585a"/></svg>

<?xml version="1.0" encoding="UTF-8" standalone="no"?>
<svg width="512px" height="174px" viewBox="0 0 512 174" version="1.1" xmlns="http://www.w3.org/2000/svg" xmlns:xlink="http://www.w3.org/1999/xlink" preserveAspectRatio="xMidYMid">
	<g>
		<path d="M91.3472,118.6208 C91.3472,125.1712 91.3472,135.4144 79.08096,135.4144 C71.5776,135.4144 68.60032,131.36448 66.81408,124.576 C60.26368,132.43648 52.16448,136.4864 42.39936,136.4864 C18.34048,136.4864 0,116 0,87.0592 C0,58.95232 18.93632,37.3952 42.39872,37.3952 C51.80672,37.3952 61.09696,41.088 66.81344,49.18656 C67.52832,42.99328 72.88704,38.46784 79.08032,38.46784 C91.3472,38.46784 91.3472,48.59136 91.3472,55.26144 L91.3472,118.61952 L91.3472,118.6208 Z M45.9712,112.90432 C59.31072,112.90432 65.74208,99.32736 65.74208,87.06112 C65.74208,74.79488 59.5488,60.85952 45.97248,60.85952 C31.91808,60.85952 25.6064,74.7936 25.6064,87.06112 C25.6064,99.32864 32.03712,112.90432 45.9712,112.90432 L45.9712,112.90432 Z M98.61248,52.76032 C98.61248,44.1856 103.97184,38.46912 111.4752,38.46912 C118.6208,38.46912 122.67008,42.39872 124.33792,49.1872 C129.10208,41.32672 139.10592,37.39648 148.75264,37.39648 C176.38336,37.39648 190.07936,63.23968 190.07936,88.13184 C190.07936,112.30848 173.64416,136.36608 147.79904,136.36608 C139.81952,136.36608 131.00544,133.3888 124.33664,127.4336 L124.33664,158.75648 C124.33664,167.3312 118.97728,173.04768 111.47392,173.04768 C103.97056,173.04768 98.60992,167.33248 98.60992,158.75648 L98.60992,52.75968 L98.61248,52.76032 Z M144.46528,112.90432 C157.80416,112.90432 164.4736,98.97024 164.4736,87.06112 C164.4736,74.91264 157.9232,60.85952 144.46528,60.85952 C130.76928,60.85952 124.33728,73.7216 124.33728,86.10752 C124.33728,98.73152 130.29248,112.90432 144.46528,112.90432 L144.46528,112.90432 Z M223.30752,14.0544 C223.30752,22.03328 216.87552,28.82176 208.89664,28.82176 C201.27424,28.82176 194.4864,21.91424 194.4864,14.05376 C194.48576,6.78784 201.27488,0 208.896,0 C216.5184,0 223.30752,6.5504 223.30752,14.0544 L223.30752,14.0544 Z M196.03456,52.76032 C196.03456,44.1856 201.39392,38.46912 208.89728,38.46912 C216.40064,38.46912 221.76,44.18432 221.76,52.76032 L221.76,121.12256 C221.76,129.69728 216.40064,135.41376 208.89728,135.41376 C201.39392,135.41376 196.03456,129.69856 196.03456,121.12256 L196.03456,52.76032 L196.03456,52.76032 Z" fill="#FC4C02"></path>
		<path d="M319.1808,126.83904 C319.1808,157.68512 299.05408,173.16864 269.8752,173.16864 C259.39456,173.16864 229.3824,168.04672 229.3824,153.87392 C229.3824,149.10976 234.74112,142.67904 239.744,142.67904 C247.9616,142.67904 257.01248,150.65856 271.78048,150.65856 C284.28608,150.65856 293.456,143.39456 293.456,130.41216 L293.456,124.33728 L293.09888,124.33728 C287.73952,132.19776 279.04448,136.48448 267.25568,136.48448 C240.3392,136.48448 227.71456,112.78528 227.71456,87.29792 C227.71456,61.45472 244.14976,37.39584 269.99424,37.39584 C278.68864,37.39584 288.69248,41.32544 293.45664,49.18656 C295.00544,42.39808 299.17312,38.46784 306.31936,38.46784 C313.82272,38.46784 319.18208,44.18432 319.18208,52.75904 L319.18208,126.83904 L319.1808,126.83904 Z M273.44832,60.97792 C260.10944,60.97792 253.44,74.91264 253.44,86.82112 C253.44,100.51712 259.98976,113.02272 273.44768,113.02272 C287.14368,113.02272 293.57568,100.16064 293.57568,87.77472 C293.57568,75.15072 287.50208,60.97792 273.44768,60.97792 L273.44832,60.97792 Z M350.02752,95.51616 C351.81312,108.1408 362.2944,114.09536 374.20416,114.09536 C387.424,114.09536 396.47616,103.73376 403.264,103.73376 C408.7424,103.73376 413.74464,109.21216 413.74464,114.8096 C413.74464,125.88544 390.99712,136.60416 371.82208,136.60416 C343.00032,136.60416 323.70688,115.52384 323.70688,87.29856 C323.70688,61.33376 342.6432,37.63456 369.67808,37.63456 C397.42848,37.63456 415.7696,62.88256 415.7696,84.32064 C415.7696,91.94304 412.4352,95.75488 404.57472,95.75488 L350.02752,95.75488 L350.02752,95.5168 L350.02752,95.51616 Z M390.28224,78.36608 C388.85312,67.1712 381.70752,58.71488 369.79712,58.71488 C358.36352,58.71488 350.74176,67.40928 349.43232,78.36608 L390.28224,78.36608 L390.28224,78.36608 Z M446.25792,95.87328 C448.04352,108.49792 458.5248,114.33344 470.43456,114.33344 C483.6544,114.33344 492.70656,103.97184 499.4944,103.97184 C504.9728,103.97184 509.97504,109.45024 509.97504,115.04768 C509.97504,126.12352 487.22752,136.84224 468.05248,136.84224 C439.23072,136.84224 419.93728,115.76192 419.93728,87.53664 C419.93728,61.57184 438.8736,37.87264 465.90848,37.87264 C493.65888,37.87264 512,63.12064 512,84.55872 C512,92.18112 508.6656,95.99232 500.80512,95.99232 L446.25792,95.99232 L446.25792,95.87328 L446.25792,95.87328 Z M486.51392,78.7232 C485.08416,67.52832 477.93792,59.072 466.02752,59.072 C454.59456,59.072 446.9728,67.7664 445.78176,78.7232 L486.51328,78.7232 L486.51392,78.7232 Z" fill="#54585A"></path>
	</g>
</svg>
